source/img/logo-mobile.svg

<?xml version="1.0" encoding="utf-8"?>
<!-- Generator: Adobe Illustrator 23.0.4, SVG Export Plug-In . SVG Version: 6.00 Build 0)  -->
<svg version="1.1" id="Layer_1" xmlns="http://www.w3.org/2000/svg" xmlns:xlink="http://www.w3.org/1999/xlink" x="0px" y="0px" viewBox="0 0 190.4 37.6" style="enable-background:new 0 0 190.4 37.6;" xml:space="preserve">
<style type="text/css">
  .st0{fill:#FDC305;}
  .st1{fill:#F06351;}
  .st2{fill:#111111;}
</style>
<g>
  <path class="st0" d="M6.1,20.7l0.1-2.3c6.7-0.9,13.4-1.4,20.2-1.3c0,0.6,0,1.2-0.1,1.8c0,0,2.9-1.3,6-1.8c-2.4-6.3-8.5-10.8-15.6-10.8c-8.3,0-15.2,6.1-16.5,14.1C2.4,20.5,6.1,20.7,6.1,20.7z"/>
<path class="st0" d="M27.2,24.2c-1.2,1.3-1.4,1.2-1.4,3.5c0,0.9,0,4.9,0,9.2c4.5-3,7.4-8.1,7.4-13.9c0-1.1-0.1-2.1-0.3-3.1C31.2,21,28.2,23.1,27.2,24.2z"/>
<path class="st0" d="M6.4,25.7c0,0-3.8-1.4-5.2-1.8c-0.4-0.1-0.8-0.2-1.2-0.3c0.2,6,3.7,11.3,8.7,14L6.4,25.7z"/>
</g>
<path class="st1" d="M26.3,17.1c0.1-8.5-1.4-16.5-1.4-16.5S24.7-0.6,24,0.4c-0.7,1.1-1.2,3.9-1.2,3.9C15.4,3.9,10,4.6,10,4.6C9.2,2,7.9,0.8,7.2,1C6.5,1.3,6.5,4.4,6.5,4.4L6.1,18.5C12.8,17.5,19.6,17.1,26.3,17.1z"/>
<path d="M12.4,14c0-0.1,1,0.7,1.4,0.9s0.6,0.4,0.6,0.6c0,0.2-0.3,0.3-0.6,0.3s-0.9-0.1-1-0.3c0,0,0.6,0,0.9,0H14C14.1,15.6,12.7,14.5,12.4,14z"/>
<path d="M19.9,14.1c0,0-1,1.3-1.1,1.3c0,0.1-0.2,0.3,0.2,0.3s1.1-0.2,1.2-0.3s0.1-0.2-0.1-0.2s-0.7,0-1,0.1L19.9,14.1C19.9,14.1,20,14,19.9,14.1z"/>
<path d="M16.8,20.2c0,0,0.8-0.4,1.1-1c0.3-0.7,0-0.9-0.4-1c-0.5-0.1-1.3,0-1.7,0.3c-0.4,0.4-0.3,0.7-0.1,1C15.9,19.7,16.5,20.1,16.8,20.2z"/>
<path class="st1" d="M16.3,21.5c0,0-0.2,0.4-0.5,0.6c-0.2,0.2-0.6,0.4-1,0.4c-0.6,0-1.1-0.2-1.5-0.4c-0.2-0.1-0.4-0.3-0.5-0.4c-0.2-0.2-0.4-0.3-0.4-0.3s0.7,4.1,2.6,4.7c1.8,0.6,2.1-0.7,2.2-1.1c0-0.3,0-2.1-0.8-3.2C16.5,21.4,16.4,21.6,16.3,21.5z"/>
<g>
<path d="M14.7,22.6L14.7,22.6c-1.3,0-2.3-1.4-2.3-1.4c0-0.1,0-0.2,0-0.2c0.1,0,0.2,0,0.2,0s1,1.3,2.1,1.3l0,0c0.6,0,1.1-0.3,1.6-1l0.1-0.2l0.1,0.2c0,0,0.4,0.8,1,0.8c0.5,0,1.1-0.4,1.6-1.3c0-0.1,0.1-0.1,0.2,0c0.1,0,0.1,0.1,0,0.2c-0.6,1-1.3,1.4-1.9,1.4s-0.9-0.5-1.1-0.8C15.9,22.3,15.3,22.6,14.7,22.6z"/>
</g>
<path class="st1" d="M26.2,18.9c0,0-2.5,2.2-5.1,5.2S15.9,29,15.9,29c-0.2-0.5-1.6-1.5-1.6-1.5s-3.1-2.1-5.2-3.8c-1.2-1-2.3-2.2-3.1-3c-0.3,0-1.1-0.1-2-0.1c4.7,7,12,8.8,12,8.8c0.9-0.1,3.3-1.9,5.1-3.3c1.8-1.4,4.8-4.5,5.9-5.9c0.6-0.7,0.9-1.4,1.1-2C27,18.6,26.2,18.9,26.2,18.9z"/>
<g transform="matrix(1, 0, 0, 1, 90, 10.200001)">
<path class="st2" d="M1.2,19.6c-0.8-1-1.2-2.5-1.2-4.4V8.9C0,7,0.4,5.5,1.2,4.5S3.4,3,5.4,3c1.9,0,3.2,0.4,4,1.3c0.8,0.9,1.2,2.1,1.2,3.8v1.5h-4V7.8c0-0.7-0.1-1.2-0.2-1.6c-0.1-0.3-0.5-0.5-1-0.5s-1,0.2-1.1,0.6C4.1,6.7,4,7.2,4,7.9v8.3c0,0.7,0.1,1.2,0.3,1.6c0.2,0.4,0.5,0.6,1.1,0.6c0.5,0,0.9-0.2,1-0.6c0.2-0.4,0.2-0.9,0.2-1.6v-1.8h3.9v1.5c0,1.6-0.4,2.9-1.2,3.9c-0.8,0.9-2.1,1.4-4,1.4C3.4,21.1,2,20.6,1.2,19.6z"/>
<path class="st2" d="M15.2,3.2h4.5L23,20.8h-3.6l-0.6-3.7h-2.6l-0.6,3.7h-3.7L15.2,3.2z M18.4,14.8l-0.9-6.9l-0.9,6.9H18.4z"/>
<path class="st2" d="M25.8,6.1h-2.7V3.2h9.3v2.9h-2.7v14.7h-4V6.1H25.8z"/>
<path class="st2" d="M39.5,3.2h6.9V5H42v5.8h3.6v1.7H42v6.4h4.5v1.8h-7V3.2z"/>
<path class="st2" d="M48.5,3.2h1.7l5.1,11.7V3.2h2.1v17.6h-1.6l-5.1-12v12h-2.1V3.2H48.5z"/>
<path class="st2" d="M59.8,3.2h6.9V5h-4.4v5.8h3.6v1.7h-3.6v6.4h4.5v1.8h-7C59.8,20.7,59.8,3.2,59.8,3.2z"/>
<path class="st2" d="M68.8,3.2h3.6c1.8,0,3.1,0.4,4,1.1s1.3,1.9,1.3,3.6c0,2.3-0.7,3.6-2.2,4.1l2.5,8.8h-2.4l-2.3-8.3h-1.9v8.3h-2.5L68.8,3.2L68.8,3.2z M72.2,10.8c1.1,0,1.8-0.2,2.3-0.6C75,9.8,75.2,9,75.2,7.9c0-0.7-0.1-1.3-0.2-1.7s-0.4-0.7-0.9-0.9c-0.4-0.2-1-0.3-1.7-0.3h-1.1v5.8C71.3,10.8,72.2,10.8,72.2,10.8z"/>
<path class="st2" d="M80.8,19.5c-0.7-1-1.1-2.5-1.1-4.5V9.2c0-1.4,0.1-2.5,0.4-3.4s0.8-1.5,1.5-2s1.7-0.7,2.9-0.7c1.6,0,2.8,0.4,3.6,1.2c0.7,0.8,1.1,2.1,1.1,3.9v0.7h-2.3V8.3c0-0.8-0.1-1.5-0.2-1.9c-0.1-0.5-0.3-0.8-0.7-1C85.7,5.1,85.2,5,84.6,5c-0.7,0-1.2,0.2-1.5,0.5s-0.6,0.7-0.7,1.2s-0.1,1.2-0.1,2.1v6.5c0,1.3,0.2,2.3,0.5,2.9s1,0.9,1.9,0.9s1.6-0.3,1.9-1c0.3-0.6,0.5-1.7,0.5-3.1v-1.2h-2.3v-1.7h4.5v8.7h-1.6l-0.2-2c-0.6,1.5-1.6,2.2-3.2,2.2C82.7,21,81.5,20.5,80.8,19.5z"/>
<path class="st2" d="M94.3,14.6L90.4,3.2h2.3l2.7,8.5l2.7-8.5h2.3l-3.8,11.4v6.2h-2.4v-6.2H94.3z"/>
</g>
</svg>

<?xml version="1.0" encoding="UTF-8"?>
<svg width="40px" height="38px" viewBox="0 0 40 38" xmlns="http://www.w3.org/2000/svg" xmlns:xlink="http://www.w3.org/1999/xlink" version="1.1">
 <!-- Generated by Pixelmator Pro 1.6.2 -->
 <g id="group">
  <path id="Путь" d="M6.1 20.7 L6.2 18.4 C12.9 17.5 19.6 17 26.4 17.1 26.4 17.7 26.4 18.3 26.3 18.9 26.3 18.9 29.2 17.6 32.3 17.1 29.9 10.8 23.8 6.3 16.7 6.3 8.4 6.3 1.5 12.4 0.2 20.4 2.4 20.5 6.1 20.7 6.1 20.7 Z" fill="#fdc305" fill-opacity="1" stroke="none"/>
  <path id="Путь-1" d="M27.2 24.2 C26 25.5 25.8 25.4 25.8 27.7 L25.8 36.9 C30.3 33.9 33.2 28.8 33.2 23 33.2 21.9 33.1 20.9 32.9 19.9 31.2 21 28.2 23.1 27.2 24.2 Z" fill="#fdc305" fill-opacity="1" stroke="none"/>
  <path id="Путь-2" d="M6.4 25.7 C6.4 25.7 2.6 24.3 1.2 23.9 0.8 23.8 0.4 23.7 0 23.6 0.2 29.6 3.7 34.9 8.7 37.6 Z" fill="#fdc305" fill-opacity="1" stroke="none"/>
 </g>
 <path id="Путь-3" d="M26.3 17.1 C26.4 8.6 24.9 0.6 24.9 0.6 24.9 0.6 24.7 -0.6 24 0.4 23.3 1.5 22.8 4.3 22.8 4.3 15.4 3.9 10 4.6 10 4.6 9.2 2 7.9 0.8 7.2 1 6.5 1.3 6.5 4.4 6.5 4.4 L6.1 18.5 C12.8 17.5 19.6 17.1 26.3 17.1 Z" fill="#f06351" fill-opacity="1" stroke="none"/>
 <path id="Путь-4" d="M12.4 14 C12.4 13.9 13.4 14.7 13.8 14.9 14.2 15.1 14.4 15.3 14.4 15.5 14.4 15.7 14.1 15.8 13.8 15.8 13.5 15.8 12.9 15.7 12.8 15.5 L13.7 15.5 14 15.5 C14.1 15.6 12.7 14.5 12.4 14 Z" fill="#000000" fill-opacity="1" stroke="none"/>
 <path id="Путь-5" d="M19.9 14.1 C19.9 14.1 18.9 15.4 18.8 15.4 18.8 15.5 18.6 15.7 19 15.7 19.4 15.7 20.1 15.5 20.2 15.4 20.3 15.3 20.3 15.2 20.1 15.2 19.9 15.2 19.4 15.2 19.1 15.3 L19.9 14.1 C19.9 14.1 20 14 19.9 14.1 Z" fill="#000000" fill-opacity="1" stroke="none"/>
 <path id="Путь-6" d="M16.8 20.2 C16.8 20.2 17.6 19.8 17.9 19.2 18.2 18.5 17.9 18.3 17.5 18.2 17 18.1 16.2 18.2 15.8 18.5 15.4 18.9 15.5 19.2 15.7 19.5 15.9 19.7 16.5 20.1 16.8 20.2 Z" fill="#000000" fill-opacity="1" stroke="none"/>
 <path id="Путь-7" d="M16.3 21.5 C16.3 21.5 16.1 21.9 15.8 22.1 15.6 22.3 15.2 22.5 14.8 22.5 14.2 22.5 13.7 22.3 13.3 22.1 13.1 22 12.9 21.8 12.8 21.7 12.6 21.5 12.4 21.4 12.4 21.4 12.4 21.4 13.1 25.5 15 26.1 16.8 26.7 17.1 25.4 17.2 25 17.2 24.7 17.2 22.9 16.4 21.8 16.5 21.4 16.4 21.6 16.3 21.5 Z" fill="#f06351" fill-opacity="1" stroke="none"/>
 <g id="group-1">
  <path id="Путь-8" d="M14.7 22.6 C13.4 22.6 12.4 21.2 12.4 21.2 12.4 21.1 12.4 21 12.4 21 L12.6 21 C12.6 21 13.6 22.3 14.7 22.3 15.3 22.3 15.8 22 16.3 21.3 L16.4 21.1 16.5 21.3 C16.5 21.3 16.9 22.1 17.5 22.1 18 22.1 18.6 21.7 19.1 20.8 19.1 20.7 19.2 20.7 19.3 20.8 19.4 20.8 19.4 20.9 19.3 21 18.7 22 18 22.4 17.4 22.4 16.8 22.4 16.5 21.9 16.3 21.6 15.9 22.3 15.3 22.6 14.7 22.6 Z" fill="#000000" fill-opacity="1" stroke="none"/>
 </g>
</svg>
